svg/uf0121-postmaster.svg

<svg height="960" style="" width="1230" xmlns="http://www.w3.org/2000/svg"><path d="m698.26171 495c-22.7539 0-45.5078 0-68.26171 0v60.76171c72.44932 5.64 133.78309 71.22944 135.08773 143.83502 3.44993 71.67095-51.46561 142.44819-123.25668 152.55286-14.97958-.36029-11.79094 13.26662-11.83105 23.4492v24.40121h480c0-135 0-270 0-405-37.7539 0-75.5078 0-113.26171 0-5.49175 65.91197-59.70813 123.48711-125.12696 133.03711-66.23437 12.00071-137.05968-27.10248-162.21679-89.53125-5.8694-13.82784-9.67035-28.5515-11.13283-43.50586zm-68.26171-435v45.76171c65.91197 5.49175 123.48711 59.70814 133.03711 125.12696 12.00071 66.23438-27.10248 137.05968-89.53125 162.21679-12.71043 7.92398-33.80032 6.78939-43.50586 13.64495v58.24959h68.26171c5.64-72.44933 71.22944-133.78309 143.83502-135.08773 71.67095-3.44993 142.44819 51.46561 152.55286 123.25667-.36029 14.97959 13.26661 11.79095 23.44921 11.83106h91.9012c0-135 0-270 0-405-160 0-320 0-480 0zm-396.73829 435c-37.7539 0-75.50781 0-113.26171 0v405h480c0-15.25391 0-30.50781 0-45.76171-72.44933-5.64-133.78309-71.22944-135.08773-143.83502-3.44993-71.67093 51.46561-142.4482 123.25667-152.55286 14.97959.36035 11.79095-13.26662 11.83106-23.44921 0-13.13374 0-26.26747 0-39.4012-22.7539 0-45.50781 0-68.26171 0-5.49174 65.91197-59.70814 123.48711-125.12696 133.03711-66.23438 12.00071-137.05968-27.10248-162.21679-89.53124-5.8694-13.82785-9.67036-28.55151-11.13283-43.50587zm-113.26171-435v405h113.26171c5.49174-65.91197 59.70814-123.48711 125.12696-133.03711 66.23438-12.00071 137.05968 27.10247 162.21679 89.53124 7.92398 12.71043 6.78939 33.80033 13.64495 43.50587h65.74959c0-20.2539 0-40.50782 0-60.76171-65.91197-5.49175-123.48711-59.70814-133.03711-125.12696-12.00071-66.23438 27.10247-137.05968 89.53124-162.21679 12.71043-7.92398 33.80033-6.78939 43.50587-13.64495 0-14.41653 0-28.83306 0-43.24959-160 0-320 0-480 0z" style="stroke-width:15"/></svg>

<svg xmlns="http://www.w3.org/2000/svg" width="1230" height="960">
    <path d="M698.262 495H630v60.762c72.45 5.64 133.783 71.23 135.088 143.835 3.45 71.67-51.466 142.448-123.257 152.553-14.98-.36-11.79 13.266-11.831 23.449V900h480V495H996.738c-5.491 65.912-59.708 123.487-125.127 133.037-66.234 12-137.06-27.102-162.216-89.531-5.87-13.828-9.67-28.552-11.133-43.506M630 60v45.762c65.912 5.491 123.487 59.708 133.037 125.127 12 66.234-27.102 137.06-89.531 162.216-12.71 7.924-33.8 6.79-43.506 13.645V465h68.262c5.64-72.45 71.23-133.783 143.835-135.088 71.67-3.45 142.448 51.466 152.553 123.257-.36 14.98 13.266 11.79 23.449 11.831H1110V60zM233.262 495H120v405h480v-45.762c-72.45-5.64-133.783-71.23-135.088-143.835-3.45-71.67 51.466-142.448 123.257-152.553 14.98.36 11.79-13.266 11.831-23.449V495h-68.262c-5.491 65.912-59.708 123.487-125.127 133.037-66.234 12-137.06-27.102-162.216-89.531-5.87-13.828-9.67-28.552-11.133-43.506M120 60v405h113.262c5.491-65.912 59.708-123.487 125.127-133.037 66.234-12 137.06 27.102 162.216 89.531 7.924 12.71 6.79 33.8 13.645 43.506H600v-60.762c-65.912-5.491-123.487-59.708-133.037-125.127-12-66.234 27.102-137.06 89.531-162.216 12.71-7.924 33.8-6.79 43.506-13.645V60z" style="stroke-width:15"/>
</svg>
